X: 15980
T: Grave Of The Unknown Clansman, The
R: waltz
M: 3/4
K: Fmajor
|:CF|A3 GGF|A,4 (3A,CF|A4 Ac|d2 f4|c3 AGF|A,4 A,C|D2 F4|F6:|
d4 de|A2 c4|d4 dc|a6|g4 gf|A2 c4|d2 f4|f6|
d4 de|A2 c4|d4 dc|a6|e4 ed|c2 A4|D2 F4|F6||

